images/calendar.svg

<svg xmlns="http://www.w3.org/2000/svg" width="512" height="512" viewBox="0 0 512 512"><path fill="#fff" d="M397.389 118.131c0 10.035-8.135 18.171-18.17 18.171s-18.171-8.136-18.171-18.171v-45.729c0-10.034 8.136-18.17 18.171-18.17s18.17 8.136 18.17 18.17v45.729zm-245.5-45.811c0-10.035-8.136-18.171-18.17-18.171-10.036 0-18.171 8.136-18.171 18.171v45.728c0 10.035 8.135 18.171 18.171 18.171 10.034 0 18.17-8.136 18.17-18.171v-45.728zm267.463 26.531v18.616c0 22.13-18.004 40.134-40.133 40.134-22.13 0-40.134-18.004-40.134-40.134v-18.616h-165.233v18.533c0 22.13-18.004 40.134-40.133 40.134-22.13 0-40.134-18.004-40.134-40.134v-18.533h-43.585v359h412v-359h-42.648zm2.648 319h-332v-222.471h332v222.471zm-155.839-82.674c0-14.731-7.681-26.239-20.387-31.124 9.716-4.852 15.363-14.818 15.363-27.609 0-24.714-24.103-39.482-47.404-39.482-27.117 0-47.591 16.986-48.831 50.757h30.196c-.26-13.972 4.987-24.149 18.828-24.149 8.249 0 17.128 4.996 17.128 15.967 0 13.849-14.992 15.833-28.788 14.627v23.504c19.606 0 31.3 1.244 31.3 18.093 0 13.3-10.058 19.253-20.024 19.253-15.118 0-21.29-11.277-21.835-26.662h-29.981c-.568 34.746 20.488 53.075 52.201 53.075 28.335-.004 52.234-17.323 52.234-46.25zm79.216 43.732v-139.244h-25.556c-3.17 21.188-18.279 27.386-39.884 26.801v24.729h34.004v87.714h31.436z"/></svg>

<?xml version="1.0" encoding="utf-8"?>
<!-- Generator: Adobe Illustrator 16.0.0, SVG Export Plug-In . SVG Version: 6.00 Build 0)  -->
<!DOCTYPE svg PUBLIC "-//W3C//DTD SVG 1.1//EN" "http://www.w3.org/Graphics/SVG/1.1/DTD/svg11.dtd">
<svg version="1.1" id="Layer_1" xmlns="http://www.w3.org/2000/svg" xmlns:xlink="http://www.w3.org/1999/xlink" x="0px" y="0px"
	 width="512px" height="512px" viewBox="0 0 512 512" enable-background="new 0 0 512 512" xml:space="preserve">
<path id="calendar-4-icon" fill="#FFFFFF" d="M397.389,118.131c0,10.035-8.135,18.171-18.17,18.171s-18.171-8.136-18.171-18.171
	V72.402c0-10.034,8.136-18.17,18.171-18.17s18.17,8.136,18.17,18.17V118.131z M151.889,72.32c0-10.035-8.136-18.171-18.17-18.171
	c-10.036,0-18.171,8.136-18.171,18.171v45.728c0,10.035,8.135,18.171,18.171,18.171c10.034,0,18.17-8.136,18.17-18.171V72.32z
	 M419.352,98.851v18.616c0,22.13-18.004,40.134-40.133,40.134c-22.13,0-40.134-18.004-40.134-40.134V98.851H173.852v18.533
	c0,22.13-18.004,40.134-40.133,40.134c-22.13,0-40.134-18.004-40.134-40.134V98.851H50v359h412v-359H419.352z M422,417.851H90
	V195.38h332V417.851z M266.161,335.177c0-14.731-7.681-26.239-20.387-31.124c9.716-4.852,15.363-14.818,15.363-27.609
	c0-24.714-24.103-39.482-47.404-39.482c-27.117,0-47.591,16.986-48.831,50.757h30.196c-0.26-13.972,4.987-24.149,18.828-24.149
	c8.249,0,17.128,4.996,17.128,15.967c0,13.849-14.992,15.833-28.788,14.627v23.504c19.606,0,31.3,1.244,31.3,18.093
	c0,13.3-10.058,19.253-20.024,19.253c-15.118,0-21.29-11.277-21.835-26.662h-29.981c-0.568,34.746,20.488,53.075,52.201,53.075
	C242.262,381.423,266.161,364.104,266.161,335.177z M345.377,378.909V239.665h-25.556c-3.17,21.188-18.279,27.386-39.884,26.801
	v24.729h34.004v87.714H345.377z"/>
</svg>
